assets/svg/1f5c3.svg

<svg xmlns="http://www.w3.org/2000/svg" viewBox="0 0 64 64" enable-background="new 0 0 64 64"><path fill="#534741" d="M64 57.33 27.979 64 6.534 50.649 42.556 44.04z"/><path fill="#3e4347" d="m42.556 44.04l-36.02 6.676v-13.219l36.02-6.676z"/><path fill="#d0d0d0" d="m64 57.39l-21.444-13.35v-13.219l21.444 16.559z"/><path fill="#ed4c5c" d="m45.989 43.39l-36.02 6.68v-13.221l18.01-3.336v1.883l18.01-3.236z"/><path fill="#ff8736" d="m51.35 46.46l-36.02 6.68v-13.223l18.01-3.337v2.284l18.01-3.449z"/><path fill="#83bf4f" d="m56.712 49.87l-36.02 6.68v-13.22l18.01-3.341v2.02l18.01-3.187z"/><path fill="#ffce31" d="m62.07 53.27l-36.02 6.68v-13.219l18.01-3.341v2.64l18.01-3.8z"/><path fill="#d0d0d0" d="m27.979 64l-21.445-13.351v-13.218l21.445 16.619z"/><g fill="#3e4347"><path d="m64 57.33l-36.02 6.67v-9.95l36.02-6.67z"/><path d="M36.02 26.83 0 33.439 0 6.609 36.02 0z"/></g><path fill="#94989b" d="M36.02 26.83 0 33.439 6.534 37.497 42.556 30.821z"/><g fill="#d0d0d0"><path d="M0 6.609 3.267 8.605 6.534 37.431 0 33.439z"/><path d="m36.02 0l3.27 1.996 3.266 28.825-6.536-3.991z"/></g><path fill="#94989b" d="M36.02 0 0 6.609 3.267 8.605 39.29 1.996z"/></svg>

<svg xmlns="http://www.w3.org/2000/svg" width="64" height="64" viewBox="0 0 64 64"><path fill="#534741" d="M64 57.325L27.979 64 6.534 50.649l36.022-6.609z"/><path fill="#3E4347" d="M42.556 44.04L6.534 50.716V37.497l36.022-6.676z"/><path fill="#D0D0D0" d="M64 57.391L42.556 44.04V30.821L64 47.378z"/><path fill="#ED4C5C" d="M45.989 43.394l-36.02 6.674V36.849l18.01-3.336v1.883l18.01-3.233z"/><path fill="#FF8736" d="M51.351 46.462L15.33 53.136V39.917l18.011-3.337v2.284l18.01-3.449z"/><path fill="#83BF4F" d="M56.712 49.87L20.69 56.545V43.326l18.012-3.337v2.016l18.01-3.182z"/><path fill="#FFCE31" d="M62.073 53.274L26.052 59.95V46.731l18.011-3.337v2.635l18.01-3.8z"/><path fill="#D0D0D0" d="M27.979 64L6.534 50.649V37.431l21.445 16.623z"/><path fill="#3E4347" d="M64 57.325L27.979 64v-9.946L64 47.378zM36.021 26.83L0 33.439V6.609L36.021 0z"/><path fill="#94989B" d="M36.021 26.83L0 33.439l6.534 4.058 36.022-6.676z"/><path fill="#D0D0D0" d="M0 6.609l3.267 1.996 3.267 28.826L0 33.439zM36.021 0l3.267 1.996 3.268 28.825-6.535-3.991z"/><path fill="#94989B" d="M36.021 0L0 6.609l3.267 1.996 36.021-6.609z"/></svg>
